modules/hawcons-filled/icons/icon-35-medal.svg

<?xml version="1.0" encoding="UTF-8" standalone="no"?>
<svg width="32px" height="32px" viewBox="0 0 32 32" version="1.1" xmlns="http://www.w3.org/2000/svg" xmlns:xlink="http://www.w3.org/1999/xlink" xmlns:sketch="http://www.bohemiancoding.com/sketch/ns">
    <!-- Generator: Sketch 3.0.3 (7891) - http://www.bohemiancoding.com/sketch -->
    <title>icon 35 medal</title>
    <desc>Created with Sketch.</desc>
    <defs></defs>
    <g id="Page-1" stroke="none" stroke-width="1" fill="none" fill-rule="evenodd" sketch:type="MSPage">
        <g id="icon-35-medal" sketch:type="MSArtboardGroup" fill="#929292">
            <path d="M17.0617547,11.6370769 L21.3594127,1 L26.9225158,3.24763956 L22.5556412,14.0560335 C21.0541056,12.7394375 19.1549584,11.865267 17.0617547,11.6370769 L17.0617547,11.6370769 L17.0617547,11.6370769 Z M9.36920411,14.0617992 L5,3.24763956 L10.5631031,1 L14.861138,11.6380097 C12.7682487,11.8679764 10.8697317,12.7437786 9.36920411,14.0617992 L9.36920411,14.0617992 L9.36920411,14.0617992 Z M15.9657076,30.5776987 C20.9362704,30.5776987 24.9657076,26.5482614 24.9657076,21.5776987 C24.9657076,16.6071359 20.9362704,12.5776987 15.9657076,12.5776987 C10.9951449,12.5776987 6.96570761,16.6071359 6.96570761,21.5776987 C6.96570761,26.5482614 10.9951449,30.5776987 15.9657076,30.5776987 L15.9657076,30.5776987 Z M15.9657076,27.5776987 C19.2794161,27.5776987 21.9657076,24.8914072 21.9657076,21.5776987 C21.9657076,18.2639902 19.2794161,15.5776987 15.9657076,15.5776987 C12.6519991,15.5776987 9.96570761,18.2639902 9.96570761,21.5776987 C9.96570761,24.8914072 12.6519991,27.5776987 15.9657076,27.5776987 L15.9657076,27.5776987 Z M15.9657076,26.5776987 C18.7271314,26.5776987 20.9657076,24.3391224 20.9657076,21.5776987 C20.9657076,18.8162749 18.7271314,16.5776987 15.9657076,16.5776987 C13.2042839,16.5776987 10.9657076,18.8162749 10.9657076,21.5776987 C10.9657076,24.3391224 13.2042839,26.5776987 15.9657076,26.5776987 L15.9657076,26.5776987 Z" id="medal" sketch:type="MSShapeGroup"></path>
        </g>
    </g>
</svg>

<svg width="32" height="32" viewBox="0 0 32 32" xmlns="http://www.w3.org/2000/svg"><path d="M17.062 11.637L21.359 1l5.564 2.248-4.367 10.808a9.96 9.96 0 0 0-5.494-2.419zm-7.693 2.425L5 3.248 10.563 1l4.298 10.638a9.96 9.96 0 0 0-5.492 2.424zm6.597 16.516a9 9 0 1 0 0-18 9 9 0 0 0 0 18zm0-3a6 6 0 1 0 0-12 6 6 0 0 0 0 12zm0-1a5 5 0 1 0 0-10 5 5 0 0 0 0 10z" fill="#929292" fill-rule="evenodd"/></svg>
